img/icons/dislikes-icon.svg

<svg width="17" height="16" viewBox="0 0 17 16" fill="none" xmlns="http://www.w3.org/2000/svg">
<path d="M8.50001 -7.43093e-07C8.58601 -7.35575e-07 8.67197 0.0241711 8.749 0.0725892C8.83267 0.125126 10.8206 1.38117 12.837 3.27373C14.0321 4.39539 14.9861 5.50791 15.6724 6.58033C16.5605 7.96804 17.0071 9.30285 16.9999 10.5477C16.9915 11.9963 16.5147 13.3586 15.6574 14.3836C14.7855 15.426 13.622 16 12.3811 16C10.7908 16 9.33679 15.0306 8.49998 13.4949C7.66316 15.0305 6.20917 16 4.61884 16C3.44651 16 2.328 15.4821 1.46924 14.5416C0.526806 13.5096 -0.00865902 12.0513 0.000107289 10.5409C0.00734579 9.29815 0.462327 7.96536 1.3524 6.57957C2.04083 5.5077 2.99349 4.39568 4.18392 3.27434C6.19297 1.38196 8.16659 0.125958 8.24963 0.0734207C8.32702 0.0244972 8.41355 -7.50651e-07 8.50001 -7.43093e-07Z" fill="#0A0D28"/>
</svg>

<svg width="17" height="16" fill="none" xmlns="http://www.w3.org/2000/svg"><path d="M8.5 0c.086 0 .172.024.249.073a29.869 29.869 0 014.088 3.2c1.195 1.122 2.15 2.235 2.835 3.307.889 1.388 1.335 2.723 1.328 3.968-.009 1.448-.485 2.81-1.343 3.836C14.786 15.426 13.622 16 12.381 16c-1.59 0-3.044-.97-3.881-2.505C7.663 15.03 6.21 16 4.619 16c-1.172 0-2.291-.518-3.15-1.458C.527 13.51-.009 12.052 0 10.54.007 9.298.462 7.965 1.352 6.58c.689-1.072 1.641-2.184 2.832-3.306A29.992 29.992 0 018.25.074.468.468 0 018.5 0z" fill="#0A0D28"/></svg>
